public/avatar/body/99.svg

<svg xmlns:xlink="http://www.w3.org/1999/xlink" height="82" width="84.85" xmlns="http://www.w3.org/2000/svg"><g transform="translate(37.4 42.25)"><use height="38" transform="translate(-11.95 -17.45)" width="32.05" xlink:href="#a"/><use height="38.95" transform="translate(-12.45 -17.95)" width="33.05" xlink:href="#b"/><use height="20.3" transform="translate(3.85 .6)" width="18.3" xlink:href="#c"/><use height="20.3" transform="matrix(-1 0 0 1 4.85 .6)" width="18.3" xlink:href="#c"/><use height="17.35" transform="translate(-7.75 3.25)" width="29.35" xlink:href="#d"/></g><defs><use height="38" width="32.05" xlink:href="#e" id="a"/><use height="38.95" width="33.05" xlink:href="#f" id="b"/><use height="20.3" width="18.3" xlink:href="#g" id="c"/><path d="M27.35 7.4q2.15 4.15 3.55 8.75 1.45 4.7 1.15 9.5-.35 4.95-4.2 8.1-3.8 3.2-8.75 4.05l-2.6.2q-3.6 0-7.05-1.15-4.65-1.6-7.1-5.5Q-.2 27.4.05 23q.2-4.4 2-9.3Q3.85 8.75 7 5.05 10.1 1.3 14.7.1l1.8-.1q1.9.05 3.7.8 4.75 2.05 7.15 6.6" fill="#967148" fill-rule="evenodd" transform="translate(-.05)" id="e"/><path d="M27.35 7.4Q24.95 2.85 20.2.8 17.55-.3 14.7.1 10.1 1.3 7 5.05q-3.15 3.7-4.95 8.65-1.8 4.9-2 9.3-.25 4.4 2.3 8.35 2.45 3.9 7.1 5.5 4.65 1.55 9.65.95 4.95-.85 8.75-4.05 3.85-3.15 4.2-8.1.3-4.8-1.15-9.5-1.4-4.6-3.55-8.75Z" fill="none" stroke="#333" stroke-linecap="round" stroke-linejoin="round" transform="translate(.45 .5)" id="f"/><g id="g"><path d="m17.1 3.2.2-.45q-.5-1.7-2.1-2.55l.7-.15q1.15.65 1.8 2.05l.1.8-1.45 5.55q-1.05 3.3-1.8 6.55-.65 2.75-3.5 3.7-5.3 1.75-10.9 1.65L0 19.6q4.85.1 9.7-.95 3.9-.9 4.25-5 .1-.95.5-1.75 1.95-4.1 2.65-8.7M0 16.95V13.9l.1-.05 1.15.6L2.3 15l-.95.85L0 16.95" fill-rule="evenodd" transform="translate(.5 -.05)"/><path d="m17.1 3.2-.4.3-2.4.15-.65 1.05-.5.8q-.95 1.65-2.6 2.3l-1.2.5-1.4.4-2.6.55-1.2 1.15-3 2.55-1.15.2v-3.5l1.9-.35q3.35-1.4 5.55-4.45 3-4.2 7.75-4.65 1.6.85 2.1 2.55l-.2.45M4.55 8.9l-.75.35q-1.75.9-3.8.9 2.05 0 3.8-.9l.75-.35" fill="#3ba6db" fill-rule="evenodd" transform="translate(.5 -.05)"/><path d="m13.65 4.7.65-1.05 2.4-.15.4-.3q-.7 4.6-2.65 8.7-.4.8-.5 1.75-.35 4.1-4.25 5-4.85 1.05-9.7.95v-.95h1.55l-.2-2.8.95-.85-1.05-.55-.1-1.5 3-2.55 1.2-1.15-.45 8.9 2.4-.25.65-9.2 1.4-.4 1.2-.5L8.7 18.25l2.75-1.1 2.2-12.45M8.7 18.25l-1.8.35-6.9.45 6.9-.45 1.8-.35" fill="#fff" fill-rule="evenodd" transform="translate(.5 -.05)"/><path d="M0 18.65v-1.7l1.35-1.1.2 2.8H0m0-4.75v-.75l1.15-.2.1 1.5-1.15-.6-.1.05m10.55-6.1q1.65-.65 2.6-2.3l.5-.8-2.2 12.45-2.75 1.1L10.55 7.8m-5.2 1.45 2.6-.55-.65 9.2-2.4.25.45-8.9" fill="#a1e0ff" fill-rule="evenodd" transform="translate(.5 -.05)"/><path d="M0 10.15q2.05 0 3.8-.9l.75-.35" fill="none" stroke="#fff" stroke-linecap="round" stroke-linejoin="round" transform="translate(.5 -.05)"/><path d="m8.7 18.25 2.75-1.1M0 19.05l6.9-.45 1.8-.35" fill="none" stroke="#99bfd4" stroke-linecap="round" stroke-linejoin="round" transform="translate(.5 -.05)"/></g><g id="d"><path d="m20.4 8.55-.3 1.1-.9 2.05-.9 2.15-.15.9q-.4 2.5-1.25 3.1-1.75 1.2-3.4 1.5l-3.95.45-1.9.8q.8-.45 1.85-2.45l1.5-3.2 2.9-6.1q.65-1.2 2.25-2.7.95-.9 1.8-1.4.1-.95 2.2-1.05.15-.45.8-.45t.65.65l-.2.5v.1q0 .95-.55 1.7.2 1-.15 1.4l-.3.95m-.45-3.5h-.05l.05.05v-.05" fill="#516d7d" fill-opacity=".302" fill-rule="evenodd" transform="translate(7.75 -3.25)"/><path d="m13.6 8.9 2.35-.1q.6.5.25 4.75l-3.15 3-2.35-2.6.5-4.25q.55-.35 2.4-.8" fill="#42748f" fill-rule="evenodd" transform="translate(7.75 -3.25)"/><path d="m11.9 9.95 3.5-.75v4L13 15.45l-1.35-1.6.25-3.9" fill="#ffd500" fill-rule="evenodd" transform="translate(7.75 -3.25)"/><path d="m-7.25 12.15.25-1.1q.3-1.15.7-1.1.4 0 .5 2.35l.05 2.3m1.7-2q.1 2.4 1.05 2.6 1 .2 1.1-1.85.1-2.1-1.1-2.65-1.1-.5-1.05 1.9Z" fill="none" stroke="#000" stroke-linecap="round" stroke-linejoin="round" transform="translate(7.75 -3.25)"/></g></defs></svg>

<?xml version="1.0" encoding="UTF-8" standalone="no"?>
<svg xmlns:xlink="http://www.w3.org/1999/xlink" height="82.0px" width="84.85px" xmlns="http://www.w3.org/2000/svg">
  <g transform="matrix(1.0, 0.0, 0.0, 1.0, 37.4, 42.25)">
    <use height="38.0" transform="matrix(1.0, 0.0, 0.0, 1.0, -11.95, -17.45)" width="32.05" xlink:href="#sprite0"/>
    <use height="38.95" transform="matrix(1.0, 0.0, 0.0, 1.0, -12.45, -17.95)" width="33.05" xlink:href="#sprite1"/>
    <use height="20.3" transform="matrix(1.0, 0.0, 0.0, 1.0, 3.85, 0.6)" width="18.3" xlink:href="#sprite2"/>
    <use height="20.3" transform="matrix(-1.0, 0.0, 0.0, 1.0, 4.85, 0.6)" width="18.3" xlink:href="#sprite2"/>
    <use height="17.35" transform="matrix(1.0, 0.0, 0.0, 1.0, -7.75, 3.25)" width="29.35" xlink:href="#shape3"/>
  </g>
  <defs>
    <g id="sprite0" transform="matrix(1.0, 0.0, 0.0, 1.0, -0.05, 0.0)">
      <use height="38.0" transform="matrix(1.0, 0.0, 0.0, 1.0, 0.05, 0.0)" width="32.05" xlink:href="#shape0"/>
    </g>
    <g id="shape0" transform="matrix(1.0, 0.0, 0.0, 1.0, -0.05, 0.0)">
      <path d="M27.35 7.4 Q29.5 11.55 30.9 16.15 32.35 20.85 32.05 25.65 31.7 30.6 27.85 33.75 24.05 36.95 19.1 37.8 L16.5 38.0 Q12.9 38.0 9.45 36.85 4.8 35.25 2.35 31.35 -0.2 27.4 0.05 23.0 0.25 18.6 2.05 13.7 3.85 8.75 7.0 5.05 10.1 1.3 14.7 0.1 L16.5 0.0 Q18.4 0.05 20.2 0.8 24.95 2.85 27.35 7.4" fill="#967148" fill-rule="evenodd" stroke="none"/>
    </g>
    <g id="sprite1" transform="matrix(1.0, 0.0, 0.0, 1.0, 0.45, 0.5)">
      <use height="38.95" transform="matrix(1.0, 0.0, 0.0, 1.0, -0.45, -0.5)" width="33.05" xlink:href="#shape1"/>
    </g>
    <g id="shape1" transform="matrix(1.0, 0.0, 0.0, 1.0, 0.45, 0.5)">
      <path d="M27.35 7.4 Q24.95 2.85 20.2 0.8 17.55 -0.3 14.7 0.1 10.1 1.3 7.0 5.05 3.85 8.75 2.05 13.7 0.25 18.6 0.05 23.0 -0.2 27.4 2.35 31.35 4.8 35.25 9.45 36.85 14.1 38.4 19.1 37.8 24.05 36.95 27.85 33.75 31.7 30.6 32.05 25.65 32.35 20.85 30.9 16.15 29.5 11.55 27.35 7.4 Z" fill="none" stroke="#333333" stroke-linecap="round" stroke-linejoin="round" stroke-width="1.0"/>
    </g>
    <g id="sprite2" transform="matrix(1.0, 0.0, 0.0, 1.0, 0.5, -0.05)">
      <use height="20.3" transform="matrix(1.0, 0.0, 0.0, 1.0, -0.5, 0.05)" width="18.3" xlink:href="#shape2"/>
    </g>
    <g id="shape2" transform="matrix(1.0, 0.0, 0.0, 1.0, 0.5, -0.05)">
      <path d="M17.1 3.2 L17.3 2.75 Q16.8 1.05 15.2 0.2 L15.9 0.05 Q17.05 0.7 17.7 2.1 L17.8 2.9 16.35 8.45 Q15.3 11.75 14.55 15.0 13.9 17.75 11.05 18.7 5.75 20.45 0.15 20.35 L0.0 19.6 Q4.85 19.7 9.7 18.65 13.6 17.75 13.95 13.65 14.05 12.7 14.45 11.9 16.4 7.8 17.1 3.2 M0.0 16.95 L0.0 13.9 0.1 13.85 1.25 14.45 2.3 15.0 1.35 15.85 0.0 16.95" fill="#000000" fill-rule="evenodd" stroke="none"/>
      <path d="M17.1 3.2 L16.7 3.5 14.3 3.65 13.65 4.7 13.15 5.5 Q12.2 7.15 10.55 7.8 L9.35 8.3 7.95 8.7 5.35 9.25 4.15 10.4 1.15 12.95 0.0 13.15 0.0 10.15 0.0 9.65 1.9 9.3 Q5.25 7.9 7.45 4.85 10.45 0.65 15.2 0.2 16.8 1.05 17.3 2.75 L17.1 3.2 M4.55 8.9 L3.8 9.25 Q2.05 10.15 0.0 10.15 2.05 10.15 3.8 9.25 L4.55 8.9" fill="#3ba6db" fill-rule="evenodd" stroke="none"/>
      <path d="M13.65 4.7 L14.3 3.65 16.7 3.5 17.1 3.2 Q16.4 7.8 14.45 11.9 14.05 12.7 13.95 13.65 13.6 17.75 9.7 18.65 4.85 19.7 0.0 19.6 L0.0 19.05 0.0 18.65 1.55 18.65 1.35 15.85 2.3 15.0 1.25 14.45 1.15 12.95 4.15 10.4 5.35 9.25 4.9 18.15 7.3 17.9 7.95 8.7 9.35 8.3 10.55 7.8 8.7 18.25 11.45 17.15 13.65 4.7 M8.7 18.25 L6.9 18.6 0.0 19.05 6.9 18.6 8.7 18.25" fill="#ffffff" fill-rule="evenodd" stroke="none"/>
      <path d="M0.0 18.65 L0.0 16.95 1.35 15.85 1.55 18.65 0.0 18.65 M0.0 13.9 L0.0 13.15 1.15 12.95 1.25 14.45 0.1 13.85 0.0 13.9 M10.55 7.8 Q12.2 7.15 13.15 5.5 L13.65 4.7 11.45 17.15 8.7 18.25 10.55 7.8 M5.35 9.25 L7.95 8.7 7.3 17.9 4.9 18.15 5.35 9.25" fill="#a1e0ff" fill-rule="evenodd" stroke="none"/>
      <path d="M0.0 10.15 Q2.05 10.15 3.8 9.25 L4.55 8.9" fill="none" stroke="#ffffff" stroke-linecap="round" stroke-linejoin="round" stroke-width="1.0"/>
      <path d="M8.7 18.25 L11.45 17.15 M0.0 19.05 L6.9 18.6 8.7 18.25" fill="none" stroke="#99bfd4" stroke-linecap="round" stroke-linejoin="round" stroke-width="1.0"/>
    </g>
    <g id="shape3" transform="matrix(1.0, 0.0, 0.0, 1.0, 7.75, -3.25)">
      <path d="M20.4 8.55 L20.1 9.65 19.2 11.7 18.3 13.85 18.15 14.75 Q17.75 17.25 16.9 17.85 15.15 19.05 13.5 19.35 L9.55 19.8 7.65 20.6 Q8.45 20.15 9.5 18.15 L11.0 14.95 13.9 8.85 Q14.55 7.65 16.15 6.15 17.1 5.25 17.95 4.75 18.05 3.8 20.15 3.7 20.3 3.25 20.95 3.25 21.6 3.25 21.6 3.9 L21.4 4.4 21.4 4.5 Q21.4 5.45 20.85 6.2 21.05 7.2 20.7 7.6 L20.4 8.55 M19.95 5.05 L19.9 5.05 19.95 5.1 19.95 5.05" fill="#516d7d" fill-opacity="0.3019608" fill-rule="evenodd" stroke="none"/>
      <path d="M13.6 8.9 L15.95 8.8 Q16.55 9.3 16.2 13.55 L13.05 16.55 10.7 13.95 11.2 9.7 Q11.75 9.35 13.6 8.9" fill="#42748f" fill-rule="evenodd" stroke="none"/>
      <path d="M11.9 9.95 L15.4 9.2 15.4 13.2 13.0 15.45 11.65 13.85 11.9 9.95" fill="#ffd500" fill-rule="evenodd" stroke="none"/>
      <path d="M-7.25 12.15 L-7.0 11.05 Q-6.7 9.9 -6.3 9.95 -5.9 9.95 -5.8 12.3 L-5.75 14.6" fill="none" stroke="#000000" stroke-linecap="round" stroke-linejoin="round" stroke-width="1.0"/>
      <path d="M-4.05 12.6 Q-3.95 15.0 -3.0 15.2 -2.0 15.4 -1.9 13.35 -1.8 11.25 -3.0 10.7 -4.1 10.2 -4.05 12.6 Z" fill="none" stroke="#000000" stroke-linecap="round" stroke-linejoin="round" stroke-width="1.0"/>
    </g>
  </defs>
</svg>
